X:1
T:Title
%%score { ( 1 3 ) | ( 2 4 ) }
L:1/8
M:6/8
K:D
V:1 treble nm="Grand Piano"
V:3 treble 
V:2 bass 
V:4 bass 
V:1
 z3 z2[Q:1/4=99] D | FFF [EG][DF][EG] | [FA]3 [FB]2 A | z3 .F3 |[M:5/8] [CG]-[CG]- [CG]3 | %5
[M:1/8] [DF] |[M:3/4] [CE]2 [DF] [EG]2 [FA] | [GB]2 [Gc] [GB]2 [CE] | [DF]A A [D^G]2 [DE] | A6 | %10
 [Fd]3 [FB]3 | [Gc]3 [EG]2 [Bd] | [Ac]2 [GB] [FA]2 [EG] | [DF]4- [DF]F | E2 E B2 B | E2 E A2 D | %16
 EF G C2- [A,CE] |[M:5/8][K:bass] [F,A,D]-[F,A,D]- [F,A,D]3 |] %18
V:2
 z3 z2 [D,F,] | [D,D][F,D][A,D] A,,E,A, | D,F,A, D,F,[K:treble][A,F] | %3
 [D,D][F,F][A,F][K:bass] .[D,D]2 F, |[M:5/8] E,G,A, A,,E, |[M:1/8] A, |[M:3/4] A,,E, A,A,, E,A, | %7
 A,,E, A,A,, E,A, | z[K:treble] F F[K:bass]E, F,^G, | A,E, C,A,, B,,C, | D,A, DD, A,D | %11
 E,A, CE, A,C | A,,E, A,A,, B,,C, | z2 A,4[K:treble] | [G,B,D]2 [G,B,D] [^G,B,DE]2 [G,B,DE] | %15
 [G,A,C]2 [G,A,C] [F,A,D]2 [F,A,] | B,-[F,B,-^D] [E,B,E]2 z G, |[M:5/8] D,2 A,, D,,2 |] %18
V:3
 x6 | x6 | x6 | FBA z A,D |[M:5/8] x5 |[M:1/8] x |[M:3/4] x6 | x6 | x6 | C3 G3 | x6 | x6 | x6 | %13
 x6 | x6 | x6 | z2 z .[A,F]3 |[M:5/8][K:bass] x5 |] %18
V:4
 x6 | x6 | x5[K:treble] x | x3[K:bass] x3 |[M:5/8] x5 |[M:1/8] x |[M:3/4] x6 | x6 | %8
 D,4[K:treble][K:bass] z2 | x6 | x6 | x6 | x6 | D,F, z D,2[K:treble] D | x6 | x6 | .[G,D]2 z A,,3 | %17
[M:5/8] x5 |] %18

